resources/lib/oojs-ui/themes/mediawiki/images/icons/citeArticle-rtl.svg

<?xml version="1.0" encoding="utf-8"?>
<svg xmlns="http://www.w3.org/2000/svg" width="24" height="24" viewBox="0 0 24 24">
    <g id="g128">
        <path d="M16 12h-9v-1h9v1zm0 2h-9v-1h9v1zm0 2h-9v-1h9v1zm-4-9h4v1h-4v-1zm0 2h4v1h-4v-1zm0-4h4v1h-4v-1zm-5-2h-2v16h10c1.7 0 3-1.3 3-3v-13h-8v7l-1.5-2-1.5 2v-7z" id="path130"/>
    </g>
</svg>

<?xml version="1.0" encoding="utf-8"?>
<svg xmlns="http://www.w3.org/2000/svg" width="24" height="24" viewBox="0 0 24 24">
    <g id="g128">
        <path d="M16 12H7v-1h9v1zm0 2H7v-1h9v1zm0 2H7v-1h9v1zm-4-9h4v1h-4V7zm0 2h4v1h-4V9zm0-4h4v1h-4V5zM7 3H5v16h10c1.7 0 3-1.3 3-3V3h-8v7L8.5 8 7 10V3z" id="path130"/>
    </g>
</svg>
